X: 1
T: Out On The Ocean
C: Trad
R: jig
M: 6/8
L: 1/8
K: Gmaj
|:D2B BAG|BdB ABA|GED G2A|BAB AGE|
E2B BAG|BdB ABA|GED G2A|1 BGG GFE:|2 BGG GBd|
|:e2e edB|e2e edB|d2d def|gfe dBA|
G2A B2d|ege dBA|GED G2A|1 BGG GBd:|2 BGG GFE||
